!!!!SEGMENT: pl-sa--481-a-viii-121--025_anonim--valc.krn
!!!cenid: 18xx:396
!!!COM: Anonim
!!!COM-rismid: pe30004985
!!!CDT:
!!!CNT:
!!!OTL: Valc
!!!PDT:
!!!AGN: Secular; Waltz
!!!SMS-siglum: PL-SA
!!!SMS-shelfmark: 481/A VIII 121
!!!SMS-shelfwork: 025 W
!!!SMS-variant:
!!!SMS-altvar:
!!!NIFC-rismid: 1001070689
!!!URL-scan: http://bc.bdsandomierz.pl/dlibra/publication/1212/edition/1171/content
!!!ONB-nifc: Str. 20, s. 1-3
!!!AIN: 1 piano
!!!key:
**kern	**kern
*part1	*part1
*staff2	*staff1
*Ipiano	*Iempty
*I"Piano	*
*I'P-no	*
*clefG2	*clefG2
*k[e-b-]	*k[e-b-]
*B-:	*B-:
*M3/8	*M3/8
*>[A,A,B,A,B,C,A,B,C,D,D,E,E,F,F,G,G,H,H,I]	*>[A,A,B,A,B,C,A,B,C,D,D,E,E,F,F,G,G,H,H,I]
=1	=1
*>A	*>A
!	!LO:TX:a:t=P:problem=bemole ee- a-(zamiast b-)
8.f 8.d 8.B-/	4b-\
16ryy	.
8ryy	8dd\
=2:|!	=2:|!
*>B	*>B
8.f 8.e- 8.c/	8cc\L
.	8ee-\J
16ryy	.
8ryy	8a\
=3	=3
8.f 8.d 8.B-/	8b-\L
.	8dd\J
16ryy	.
8ryy	8f/
=4	=4
*rep	*
8.f 8.d 8.B-/	4b-\
16ryy	.
8ryy	8dd\
*Xrep	*
=5:|!	=5:|!
*>C	*>C
8.f 8.e- 8.c/	8cc\L
.	8ee-\J
16ryy	.
8ryy	8a/
=6	=6
8.f 8.d 8.B-/	4b-\
16ryy	.
8ryy	8r
=7:|!|:	=7:|!|:
*>D	*>D
8.f 8.e- 8.c/	8ee-\L
.	8cc\
16ryy	.
8ryy	8cc\J
=8	=8
8.f 8.d 8.B-/	8dd\L
.	8b-\
16ryy	.
8ryy	8b-\J
=9	=9
8.f 8.c 8.A/	8cc\L
.	8a\
16ryy	.
8ryy	8a\J
=10	=10
8.f 8.d 8.B-/	8b-\L
.	8dd\
16ryy	.
8ryy	8ff\J
=11	=11
8.f 8.e- 8.c/	8ee-\L
.	8cc\
16ryy	.
8ryy	8cc\J
=12	=12
8.f 8.d 8.B-/	8dd\L
.	8b-\
16ryy	.
8ryy	8b-\J
=13	=13
8.f 8.c 8.A/	8cc\L
.	8a\
16ryy	.
8ryy	8a\J
=14	=14
8.f 8.d 8.B-/	4b-\
16ryy	.
8ryy	8r
!LO:LB:g=original	!LO:LB:g=original
=15:|!|:	=15:|!|:
*>E	*>E
*k[e-b-a-]	*k[e-b-a-]
8b-L 8g 8e-/	16ee-\LL
.	16dd\
8b- 8g 8e-/	16ee-\
.	16ff\
8b-J 8g 8e-/	16gg\
.	16aa-\JJ
=16	=16
*rep	*
8b-L 8g 8e-/	8bb-\L
8b- 8g 8e-/	8gg\
8b-J 8g 8e-/	8ee-\J
*Xrep	*
=17	=17
8.b- 8.f 8.d/	8aa-\L
.	8ff\
16ryy	.
8ryy	8dd\J
=18	=18
8.b- 8.g 8.e-/	8ee-\L
.	8gg\
16ryy	.
8rgyy	8ee-\J
=19	=19
*rep	*
8.b- 8.g 8.e-/	16ee-\LL
.	16dd\
.	16ee-\
16ryy	16ff\
8rgyy	16gg\
.	16aa-\JJ
*Xrep	*
=20	=20
!LO:TX:a:t=3	!LO:TX:a:t=3
*rep	*
8.b- 8.g 8.e-/	8bb-\L
.	8gg\
16ryy	.
8rgyy	8ee-\J
*Xrep	*
=21	=21
*rep	*
8.b- 8.g 8.e-/	4ee-\
16ryy	.
8rgyy	8r
*Xrep	*
=22:|!|:	=22:|!|:
*>F	*>F
!LO:TX:a:t=3	!LO:TX:a:t=3
8.b- 8.a- 8.f/	8aa-\L
.	8ff\
16ryy	.
8ryy	8dd\J
=23	=23
!LO:TX:a:t=P:problem=dziwne zygzaki na początku taktu	!LO:TX:a:t=P:problem=dziwne zygzaki na początku taktu
8B-/L	8aa-\L
8f 8d/	8b-\
8fJ 8d/	8b-\J
=24	=24
8B-/L	8gg\L
8g 8e-/	8b-\
8gJ 8e-/	8b-\J
=25	=25
8B-/L	8ff\L
8f 8d/	8b-\
8fJ 8d/	8b-\J
=26	=26
8B-/L	8ee-\L
8g 8e-/	8gg\
8gJ 8e-/	8bb-\J
!LO:LB:g=original	!LO:LB:g=original
=27	=27
8B-/L	8aa-\L
8f 8d/	8b-\
8fJ 8d/	8b-\J
=28	=28
8B-/L	8gg\L
8g 8e-/	8b-\
8gJ 8e-/	8b-\J
=29	=29
8B-/L	8ff\L
8f 8d/	8b-\
8fJ 8d/	8b-\J
=30	=30
8.g 8.e- 8.B-/	4ee-\
16ryy	.
8ryy	8r
=31:|!|:	=31:|!|:
*>G	*>G
8e-/L	4bb-\
8g/	.
8b-/J	8gg\
=32:|!	=32:|!
*>H	*>H
8d/L	16bb-\LL
.	16aa-\JJ
8f/	8ff\L
8b-/J	8ff\J
=33	=33
8e-/L	4bb-\
8g/	.
8b-/J	8gg\
=34:|!	=34:|!
*>I	*>I
8d/L	16bb-\LL
.	16aa-\JJ
8f/	8ff\L
8b-/J	8ff\J
=35	=35
8.b- 8.g 8.e-/	4ee-\
16ryy	.
8ryy	8r
==	==
*-	*-
!!!system-decoration: s1,s2
!!!ENC: Marta Lawrence
!!!END: 2020-11-21
!!!ENC: Anastazja Marusiak
!!!END: 2020-06-14
